res/skins/LateNight/palemoon/style/cover_default.svg

<svg width="444" height="444" version="1.1" xmlns="http://www.w3.org/2000/svg">
  <rect width="444" height="444" fill="#282829" stroke="#000" stroke-linecap="round" stroke-width="1.1" style="paint-order:fill markers stroke"/>
  <path d="m222 124.279c-53.967 0-97.7168 43.7498-97.7168 97.7168s43.7498 97.7168 97.7168 97.7168 97.7168-43.7498 97.7168-97.7168-43.7498-97.7168-97.7168-97.7168zm0.00195 92.1621c3.07 0 5.5586 2.48859 5.5586 5.55859s-2.4885 5.55859-5.5586 5.55859c-3.07 0-5.55859-2.48869-5.55859-5.55859 0-3.07 2.48849-5.55859 5.55859-5.55859z" fill="#363636"/>
</svg>

<?xml version="1.0" encoding="UTF-8" standalone="no"?>
<svg
   xmlns:dc="http://purl.org/dc/elements/1.1/"
   xmlns:cc="http://creativecommons.org/ns#"
   xmlns:rdf="http://www.w3.org/1999/02/22-rdf-syntax-ns#"
   xmlns:svg="http://www.w3.org/2000/svg"
   xmlns="http://www.w3.org/2000/svg"
   width="444"
   height="444"
   version="1.1"
   id="svg8">
  <metadata
     id="metadata14">
    <rdf:RDF>
      <cc:Work
         rdf:about="">
        <dc:format>image/svg+xml</dc:format>
        <dc:type
           rdf:resource="http://purl.org/dc/dcmitype/StillImage" />
        <dc:title></dc:title>
      </cc:Work>
    </rdf:RDF>
  </metadata>
  <defs
     id="defs12" />
  <rect
     width="444"
     height="444"
     fill="#696969"
     fill-opacity=".52156866"
     opacity=".5"
     stroke="#000"
     stroke-linecap="round"
     stroke-width="1.10000002"
     style="paint-order:fill markers stroke;fill:#282829;fill-opacity:1;stroke:none;opacity:1"
     id="rect2" />
  <path
     d="M 222 124.2793 C 168.033 124.2793 124.2832 168.02909 124.2832 221.99609 C 124.2832 275.96309 168.033 319.71289 222 319.71289 C 275.967 319.71289 319.7168 275.96309 319.7168 221.99609 C 319.7168 168.02909 275.967 124.2793 222 124.2793 z M 222.00195 216.44141 C 225.07195 216.44141 227.56055 218.93 227.56055 222 C 227.56055 225.07 225.07205 227.55859 222.00195 227.55859 C 218.93195 227.55859 216.44336 225.0699 216.44336 222 C 216.44336 218.93 218.93185 216.44141 222.00195 216.44141 z "
     id="path4"
     style="fill:#363636;fill-opacity:1" />
</svg>
